X: 1
T:Fear Chul Charn
M:C
L:1/8
Q:80
C:Culcairn's Strathspey
S:Strathspey
K:HP
|: g|
G/2{gGd}G3/2{dc}d3/2B/2{Gdc}d3/2e/2{gde}d3/2B/2|
{g}G3/2{d}B/2{Gdc}d3/2B/2{gef}e3/2d/2{gBd}B2|
G/2{gGd}G3/2{dc}d3/2B/2{Gdc}d3/2e/2{gde}d3/2B/2|  !
{g}e3/2f/2{gf}g3/2e/2{gde}d3/2B/2A2:| [|
{gf}g3/2a/2{f}g3/2e/2{Gdc}d3/2e/2{gde}d3/2B/2|
{gf}g3/2a/2{f}g3/2e/2{Gdc}d3/2e/2{gBd}B2|  !
{gf}g3/2a/2{f}g3/2e/2{Gdc}d3/2e/2{gde}d3/2B/2|
{g}e3/2f/2{gf}g3/2e/2{gde}d3/2B/2{g}A2{gf}g3/2a/2{f}g3/2e/2{Gdc}d3/2e/2{
gde}d3/2B/2|
{gf}g3/2a/2{f}g3/2e/2{Gdc}d3/2e/2{gBd}B2|  !
{gf}g3/2a/2e3/2g/2{Gdc}d3/2e/2{gde}d3/2B/2|
{g}e3/2f/2{gf}g3/2e/2{gde}d3/2B/2{g}A2|]
